www/assets/icons/file_present.svg

<svg xmlns="http://www.w3.org/2000/svg" width="24" height="24" viewBox="0 0 24 24" fill='currentColor'><path d="M15 2H6c-1.1 0-2 .9-2 2v16c0 1.1.9 2 2 2h12c1.1 0 2-.9 2-2V7zM6 20V4h8v4h4v12zm10-10v5c0 2.21-1.79 4-4 4s-4-1.79-4-4V8.5a2.5 2.5 0 0 1 2.76-2.49c1.3.13 2.24 1.32 2.24 2.63V15h-2V8.5c0-.28-.22-.5-.5-.5s-.5.22-.5.5V15c0 1.1.9 2 2 2s2-.9 2-2v-5z"/></svg>

<svg width="24" height="24" viewBox="0 0 24 24" xmlns="http://www.w3.org/2000/svg" fill='currentColor'><path d="M15 2H6C4.9 2 4 2.9 4 4V20C4 21.1 4.9 22 6 22H18C19.1 22 20 21.1 20 20V7L15 2ZM6 20V4H14V8H18V20H6ZM16 10V15C16 17.21 14.21 19 12 19C9.79 19 8 17.21 8 15V8.5C8 7.03 9.26 5.86 10.76 6.01C12.06 6.14 13 7.33 13 8.64V15H11V8.5C11 8.22 10.78 8 10.5 8C10.22 8 10 8.22 10 8.5V15C10 16.1 10.9 17 12 17C13.1 17 14 16.1 14 15V10H16Z"/></svg>
